X:9218
T:Lanacashire Quadrilles,#5. JNu.50
M:2/4
L:1/8
Q:300
S:James Nuttall MS,c1830?,Rossendale,East Lancs.
R:Quadrille
O:England
A:East Lancashire
Z:vmp.Manchester Morris Men
K:C
(3GAB|c2cc cccc|e3d cEGc|e2ee eeee|g3f e2g2|!
gggg gfed|cBcd e2f2|gedc BAG^F|G6::!
cd|e2e2 fede|dcBA G2ef|g2g2 agfe|c4 B2GB|!
e2ee fefg|a3g gfed|cBcd e2d2|c4c2:|]


